styles/3/Numix/32/places/yellow-folder-documents.svg

<?xml version="1.0" encoding="UTF-8" standalone="no"?>
<!-- Created with Inkscape (http://www.inkscape.org/) -->

<svg
   xmlns:dc="http://purl.org/dc/elements/1.1/"
   xmlns:cc="http://creativecommons.org/ns#"
   xmlns:rdf="http://www.w3.org/1999/02/22-rdf-syntax-ns#"
   xmlns:svg="http://www.w3.org/2000/svg"
   xmlns="http://www.w3.org/2000/svg"
   xmlns:sodipodi="http://sodipodi.sourceforge.net/DTD/sodipodi-0.dtd"
   xmlns:inkscape="http://www.inkscape.org/namespaces/inkscape"
   width="32"
   height="32"
   id="svg2"
   version="1.1"
   inkscape:version="0.91 r"
   sodipodi:docname="yellow-folder-documents.svg"
   inkscape:export-filename="/media/Data/Main/Visuals/Icons/Numix/Desktop/repos/numix-wiki/Gjorgi/Numix-folders/48/New/folder-144.png"
   inkscape:export-xdpi="270"
   inkscape:export-ydpi="270">
  <defs
     id="defs4" />
  <sodipodi:namedview
     id="base"
     pagecolor="#ffffff"
     bordercolor="#666666"
     borderopacity="1.0"
     inkscape:pageopacity="0.0"
     inkscape:pageshadow="2"
     inkscape:zoom="13.397168"
     inkscape:cx="1.1452102"
     inkscape:cy="13.602827"
     inkscape:document-units="px"
     inkscape:current-layer="layer1"
     showgrid="true"
     inkscape:window-width="1280"
     inkscape:window-height="998"
     inkscape:window-x="0"
     inkscape:window-y="0"
     inkscape:window-maximized="1"
     showguides="true"
     inkscape:guide-bbox="true">
    <inkscape:grid
       type="xygrid"
       id="grid2985"
       empspacing="5"
       visible="true"
       enabled="true"
       snapvisiblegridlinesonly="true" />
  </sodipodi:namedview>
  <metadata
     id="metadata7">
    <rdf:RDF>
      <cc:Work
         rdf:about="">
        <dc:format>image/svg+xml</dc:format>
        <dc:type
           rdf:resource="http://purl.org/dc/dcmitype/StillImage" />
        <dc:title />
      </cc:Work>
    </rdf:RDF>
  </metadata>
  <g
     inkscape:label="Layer 1"
     inkscape:groupmode="layer"
     id="layer1"
     transform="translate(0,-1020.3622)">
    <rect
       style="fill:#ffb300;fill-opacity:1;stroke:none"
       id="rect3757"
       width="26"
       height="10"
       x="3"
       y="1026.3622" />
    <path
       style="fill:#ffb300;fill-opacity:1;stroke:none"
       d="m 6,1026.3622 c 0,-1 0,-2 1.4545454,-2 l 5.0909096,0 c 1.454545,0 1.454545,1 1.454545,2 l 0,1 -8,0 z"
       id="path3759"
       inkscape:connector-curvature="0"
       sodipodi:nodetypes="ccccccc" />
    <path
       style="fill:#95989f;fill-opacity:1;stroke:none"
       d="m 5,1028.3622 22,0 0,4.9677 -22,0 z"
       id="path3765"
       inkscape:connector-curvature="0" />
    <rect
       y="1027.3622"
       x="7"
       height="12.999977"
       width="19"
       id="rect3763"
       style="fill:#d8d8da;fill-opacity:1;stroke:none" />
    <rect
       style="fill:#f9f9f9;fill-opacity:1;stroke:none"
       id="rect3761"
       width="19"
       height="12.999977"
       x="6"
       y="1029.3622" />
    <path
       style="fill:#ffca28;fill-opacity:1;stroke:none"
       d="m 1,1030.3622 30,0 -2.142857,18 -25.7142859,0 z"
       id="path2987"
       inkscape:connector-curvature="0"
       sodipodi:nodetypes="ccccc" />
    <path
       style="opacity:0.4;fill:#745100;fill-opacity:1;stroke:none"
       d="M 12 12 C 10.892 12 10 12.892 10 14 L 10 24 C 10 25.108 10.892 26 12 26 L 20 26 C 21.108 26 22 25.108 22 24 L 22 17 L 17 12 L 12 12 z M 12 14 L 17 14 L 17 17 L 20 17 L 20 24 L 12 24 L 12 14 z M 13.25 18 C 13.1115 18 13 18.1115 13 18.25 L 13 18.75 C 13 18.8885 13.1115 19 13.25 19 L 16.75 19 C 16.8885 19 17 18.8885 17 18.75 L 17 18.25 C 17 18.1115 16.8885 18 16.75 18 L 13.25 18 z M 13.25 20 C 13.1115 20 13 20.1115 13 20.25 L 13 20.75 C 13 20.8885 13.1115 21 13.25 21 L 18.75 21 C 18.8885 21 19 20.8885 19 20.75 L 19 20.25 C 19 20.1115 18.8885 20 18.75 20 L 13.25 20 z M 13.25 22 C 13.1115 22 13 22.1115 13 22.25 L 13 22.75 C 13 22.8885 13.1115 23 13.25 23 L 18.75 23 C 18.8885 23 19 22.8885 19 22.75 L 19 22.25 C 19 22.1115 18.8885 22 18.75 22 L 13.25 22 z "
       transform="translate(0,1020.3622)"
       id="rect2991-3" />
  </g>
</svg>

<!-- Created with Inkscape (http://www.inkscape.org/) -->
<svg xmlns="http://www.w3.org/2000/svg" viewBox="0 0 32 32">
 <g transform="translate(0,-1020.3622)">
  <rect width="26" height="10" x="3" y="1026.36" style="fill:#ffb300;fill-opacity:1;stroke:none"/>
  <path d="m 6 1026.36 c 0 -1 0 -2 1.455 -2 l 5.091 0 c 1.455 0 1.455 1 1.455 2 l 0 1 -8 0 z" style="fill:#ffb300;fill-opacity:1;stroke:none"/>
  <path d="m 5 1028.36 22 0 0 4.968 -22 0 z" style="fill:#95989f;fill-opacity:1;stroke:none"/>
  <rect y="1027.36" x="7" height="13" width="19" style="fill:#d8d8da;fill-opacity:1;stroke:none"/>
  <rect width="19" height="13" x="6" y="1029.36" style="fill:#f9f9f9;fill-opacity:1;stroke:none"/>
  <path d="m 1 1030.36 30 0 -2.143 18 -25.714 0 z" style="fill:#ffca28;fill-opacity:1;stroke:none"/>
  <path d="m 12 12 c -1.108 0 -2 0.892 -2 2 l 0 10 c 0 1.108 0.892 2 2 2 l 8 0 c 1.108 0 2 -0.892 2 -2 l 0 -7 l -5 -5 l -5 0 z m 0 2 l 5 0 l 0 3 l 3 0 l 0 7 l -8 0 l 0 -10 z m 1.25 4 c -0.139 0 -0.25 0.111 -0.25 0.25 l 0 0.5 c 0 0.139 0.111 0.25 0.25 0.25 l 3.5 0 c 0.139 0 0.25 -0.111 0.25 -0.25 l 0 -0.5 c 0 -0.139 -0.111 -0.25 -0.25 -0.25 l -3.5 0 z m 0 2 c -0.139 0 -0.25 0.111 -0.25 0.25 l 0 0.5 c 0 0.139 0.111 0.25 0.25 0.25 l 5.5 0 c 0.139 0 0.25 -0.111 0.25 -0.25 l 0 -0.5 c 0 -0.139 -0.111 -0.25 -0.25 -0.25 l -5.5 0 z m 0 2 c -0.139 0 -0.25 0.111 -0.25 0.25 l 0 0.5 c 0 0.139 0.111 0.25 0.25 0.25 l 5.5 0 c 0.139 0 0.25 -0.111 0.25 -0.25 l 0 -0.5 c 0 -0.139 -0.111 -0.25 -0.25 -0.25 l -5.5 0 z" transform="translate(0,1020.3622)" style="fill:#745100;opacity:0.4;fill-opacity:1;stroke:none"/>
 </g>
</svg>
